src/actions/symbolic/route-transit-gondolalift-symbolic.svg

<svg width="16" height="16" version="1.1" viewBox="0 0 16 16" xmlns="http://www.w3.org/2000/svg">
 <g transform="translate(0 -1036.4)">
  <path transform="translate(0 1036.4)" d="m14.479 0v0.0019531a0.50005 0.50005 0 0 0-0.13281 0.021484l-12.986 3.9961a0.50005 0.50005 0 1 0 0.29492 0.95508l12.986-3.9961a0.50005 0.50005 0 0 0-0.16211-0.97852zm-5.0801 3.5938-1.9473 0.59961-0.45117 1.8066h-3c-1.108 0-2 0.892-2 2v5c0 1.108 0.892 2 2 2h9c1.108 0 2-0.892 2-2v-5c0-1.108-0.892-2-2-2h-3l-0.60156-2.4062zm-5.3984 3.4062h2v3h-3v-2c0-0.554 0.44599-1 1-1zm3 0h3v3h-3v-3zm4 0h2c0.55401 0 1 0.446 1 1v2h-3v-3zm-8 4h11v2c0 0.554-0.44599 1-1 1h-9c-0.55401 0-1-0.446-1-1v-2z" fill="#363636"/>
 </g>
</svg>

<svg xmlns="http://www.w3.org/2000/svg" width="16" height="16">
    <path fill="#050505" fill-opacity=".7" d="M14.479 0v.002a.5.5 0 0 0-.133.021L1.36 4.02a.5.5 0 1 0 .295.955L14.641.979A.5.5 0 0 0 14.48 0zm-5.08 3.594-1.947.6L7 6H4c-1.108 0-2 .892-2 2v5c0 1.108.892 2 2 2h9c1.108 0 2-.892 2-2V8c0-1.108-.892-2-2-2h-3L9.4 3.594zM4 7h2v3H3V8c0-.554.445-1 1-1zm3 0h3v3H7V7zm4 0h2c.554 0 1 .446 1 1v2h-3V7zm-8 4h11v2c0 .554-.446 1-1 1H4c-.555 0-1-.446-1-1v-2z"/>
</svg>
